!!!COM: Palestrina, Giovanni Perluigi da
!!!OPR: Missa In semidupl. maj. (I)
!!!OMD: Credo
!!!OTL: Genitum
**kern	**kern	**kern	**kern	**kern
*Ibass	*Itenor	*Itenor	*Icalto	*Icant
!Bassus	!Tenor 2	!Tenor 1	!Altus	!Cantus
*clefF4	*clefGv2	*clefGv2	*clefG2	*clefG2
*k[b-]	*k[b-]	*k[b-]	*k[b-]	*k[b-]
*F:ion	*F:ion	*F:ion	*F:ion	*F:ion
*M4/2	*M4/2	*M4/2	*M4/2	*M4/2
=38	=38	=38	=38	=38
0r	0r	0r	1r	1.c
.	.	.	2r	.
.	.	.	[2G	2d
=39	=39	=39	=39	=39
0r	0r	0r	2G]	2e
.	.	.	2A	2f
.	.	.	2B-	1g
.	.	.	2c	.
=40	=40	=40	=40	=40
0r	0r	0r	1d	2f
.	.	.	.	2f
.	.	.	2c	2g
.	.	.	2c	2a
=41	=41	=41	=41	=41
1r	0r	0r	2d	2b-
.	.	.	2e	2cc
2r	.	.	2f	2a
[2BB-	.	.	[2d	[2b-
=42	=42	=42	=42	=42
2BB-]	0r	0r	2d]	2b-]
2C	.	.	2c	1a
2D	.	.	1B-	.
2E	.	.	.	2g
=43	=43	=43	=43	=43
1F	2r	1r	1A	1a
.	1c	.	.	.
1D	.	1F	1f	1r
.	2B-	.	.	.
=44	=44	=44	=44	=44
1C	4c	2G	1e	0r
.	4B-	.	.	.
.	4A	2A	.	.
.	4G	.	.	.
2D	2F	2B-	2d	.
2E	2G	2c	[2c	.
=45	=45	=45	=45	=45
2F	2A	2A	2c]	0r
1D	2.F	2.B-	1d	.
.	4D	4A	.	.
[2C	2E	[2A	2A	.
=46	=46	=46	=46	=46
2C]	1D	2A]	1d	0r
2BB-	.	2G	.	.
[1FF	[1F	[1A	2c	.
.	.	.	[2c	.
=47	=47	=47	=47	=47
0FF]	0F]	1A]	2c]	2r
.	.	.	2F	1f
.	.	2.A	2.c	.
.	.	.	.	2c
.	.	4A	4c	.
=48	=48	=48	=48	=48
0r	0r	2B-	2d	2.f
.	.	2d	1f	.
.	.	.	.	4f
.	.	1c	.	1g
.	.	.	2e	.
=49	=49	=49	=49	=49
0r	1F	2.A	4d	1a
.	.	.	4c	.
.	.	.	1f	.
.	.	4B-	.	.
.	1C	1c	.	1g
.	.	.	2e	.
=50	=50	=50	=50	=50
2r	2.F	0r	4f	1f
.	.	.	4e	.
1BB-	.	.	4d	.
.	4F	.	4c	.
.	2G	.	2B-	2d
2FF	2A	.	2c	2c
=51	=51	=51	=51	=51
2.BB-	4G	0r	1B-	2.d
.	4F	.	.	.
.	1F	.	.	.
4BB-	.	.	.	4d
1C	.	.	2.A	2c
.	2E	.	.	4cc
.	.	.	4G	4b-
=52	=52	=52	=52	=52
2.D	1F	2r	1F	4a
.	.	.	.	4g
.	.	1F	.	4f
4C	.	.	.	4e
2BB-	2r	.	2B-	2d
2AA	2F	2C	2c	2a
=53	=53	=53	=53	=53
1BB-	2D	2.F	2.d	1f
.	1d	.	.	.
.	.	4F	4c	.
1GG	.	1G	4B-	1b-
.	.	.	4c	.
.	2B-	.	4d	.
.	.	.	4e	.
=54	=54	=54	=54	=54
1FF	1c	1A	4f	2.a
.	.	.	4c	.
.	.	.	1f	.
.	.	.	.	4b-
1C	2.c	1G	.	1cc
.	.	.	2e	.
.	4c	.	.	.
=55	=55	=55	=55	=55
[0FF	[0c	[0F	[0f	[0a
=56	=56	=56	=56	=56
0FF]	0c]	0F]	0f]	0a]
*-	*-	*-	*-	*-
!!!CDT: 1525/^1526/-1594/2/2
!!!OCY: Italia
!!!AGN: Mass (Paraphrase)
!!!AST: renaissance, vocal
!!!ASW: Gregorian Mass
!!!PWK: Masses, Book Mantuan II
!!!RNB: Cadence finals: C
!!!YOR: Le Opere Complete, v. 19, p. 129
!!!YOO: Rome, Italy: Fratelli Scalera
!!!END: 1992//
!!!EED: John Miller
!!!YEC: Copyright 2000, John Miller
!!!YEN: United States of America
!!!YEM: Rights to all derivative electronic formats reserved.
!!!YEM: Refer to licensing agreement for further details.
!!!YEM: This file must be accompanied by the licensing agreement.
!!!YEM: A copy of the licensing agreement may be found at http://www.music-cog.ohio-state.edu/HumdrumDatabases/Palestrina/license.txt
!!!EMD: converted to Humdrum by Bret Aarden
